!!!OTL: Graf Friedrich.
!!!OTL-incipit: Es wollt' ein Ritter ausreiten
!!!ARE: Europa, Mitteleuropa, Deutschland (), Sachsen, Erzgebirge, Rittersgruen
!!!YOR: 2, S. 201
!!    1893 aufgezeichnet
!!!SCT: Q0048C
!!!YEM: Copyright 1995, estate of Helmut Schaffrath.
**kern	**text
*ICvox	*
*M4/4	*
*met(c)	*
*k[]	*
*C:	*
{4g	1._Es
=1	=1
4cc	wollt'
8bL	ein
8aJ	.
[8g	Rit-
8g]	-ter
8ccL	aus-
8eeJ	.
=2	=2
4dd	-rei-
4cc	-ten
4r}	.
{4g	mit
=3	=3
4cc	ſei-
8bL	-nen
8aJ	.
[8g	Hoch-
8g]	.
8ccL	-ʒeits-
8eeJ	.
=4	=4
4dd	-leu-
4cc	-ten;
4r}	.
{4g	er
=5	=5
4ee	woll-
8ee	-te
8ee	aus-
4ee	-rei-
8ee	-ten
8ee	ʒu
=6	=6
8gg	ſei-
8gg	-ner
8ff	lie-
8ee	-ben
4.dd}	Braut,
{8cc	die
=7	=7
4b	ihm
4b	von
4.gg	Gott
8ff	war
=8	=8
4ee	an-
4dd	-ver-
4cc}	-traut.
==	==
!!!AGN: Ballade, Hochzeit, Mord / Unfall, Tod
!! Grundton in der zweigestrichenen Oktave.
!!!ONB: ESAC (Essen Associative Code) Database: BALLADE
!!!AMT: simple quadruple
!!!AIN: vox
!!!EED: Helmut Schaffrath
!!!EEV: 1.0
!!@@COMMENT:"B 24025. Rittersgrün (Erʒgebirge), 1893."
!!@@END:
!!!source: Deutsche Volkslieder mit ihren Melodien. Herausgegeben vom Deutschen Volksliedarchiv. Zweiter Band Balladen. Berlin 1939.
!!!page: 201
!!!ENC: Anna Maria Matuszewska
!!!EEV: 2025/02/17
*-	*-
